X: 1514
T: Andy McGann's
R: reel
M: 4/4
K: Cmajor
|:eccB cGEG|FEDC B,DGF|EGcE FAdc|1 Bggg agfd:|2 Bdgf ecdB||
|:c2gc acgc|c2gc BcdB|1 c2gc acgc|BGGG BcdB:|2 cg~g2 eg~g2|ag^fa g2g=f||

